X:1
T:Title
%%score { ( 1 4 ) | ( 2 3 ) }
L:1/8
M:4/4
K:G
V:1 treble nm="Grand Piano"
V:4 treble 
V:2 bass 
V:3 bass 
V:1
 z4 z2[Q:1/4=100] D2 | G2 B2 [FA]2 [Ac]2 | [GB][Ac][Bd]e [DBd]2 [DG]2 | %3
 [DFA]2 [DAc]2 [A,DF]2 [CFA]2 |[M:3/4] G6 |[M:1/4] D2 |[M:4/4] G2 B2 [FA]2 [Ac]2 | %7
 [GB][Ac][Bd]e [DBd]2 [DG]2 | [DFA]2 [DAc]2 [A,DF]2 [CFA]2 |[M:3/4] [B,G]6 |[M:1/4] G>A | %11
[M:4/4] B6 z2 | D2 D>D D2 G>A | B2 d2 e>d c>B | [FA]2 [Fd]2 [Fd]2 G>A | B6 z2 | %16
 D2 D>D D2 [G,DG]>[Ec] | B3 G A2 F2 |[M:3/4] G6 |] %19
V:2
 z4 z2 [G,B,]2 | [G,B,D]2 [G,D]2 [D,D]2 [D,D]2 | z2 [G,D]2[K:bass] z4 | D,2 D,2 D,2 D,2 | %4
[M:3/4] [G,B,]6 |[M:1/4] [G,B,]2 |[M:4/4] [G,B,D]2 [G,D]2 [D,D]2 [D,D]2 | z2 [G,D]2[K:bass] z4 | %8
 D,2 D,2 D,2 D,2 |[M:3/4] G,6 |[M:1/4] B,>C |[M:4/4] D6 z2 | B,6 z2[K:treble] | %13
 [G,DG]2 [B,DG]2 [CG]>[B,DG] [A,DF]>[G,DG] | [D,D]2 [D,A,]2 [D,A,]2 B,>C | D6 z2 | B,6 z2 | %17
 [D,G,D]3 [D,B,D] [D,F,D]2 [D,A,C]2 |[M:3/4] z2 E,>^D, =D,2 |] %19
V:3
 x8 | x8 | [G,D]2 z c[K:bass] G,2 B,,2 | x8 |[M:3/4] x6 |[M:1/4] x2 |[M:4/4] x8 | %7
 [G,D]2 z c[K:bass] G,2 B,,2 | x8 |[M:3/4] x6 |[M:1/4] x2 |[M:4/4] z2 G,>G, G,2 B,>C | %12
 z2 G,>G, G,2 [G,B,]>[K:treble][G,CG] | x8 | x8 | z2 G,>G, G,2 B,>C | z2 G,>G, G,2 B,,>[C,G,] | %17
 x8 |[M:3/4] G,,6 |] %19
V:4
 x8 | x8 | x8 | x8 |[M:3/4] x6 |[M:1/4] x2 |[M:4/4] x8 | x8 | x8 |[M:3/4] x6 |[M:1/4] x2 | %11
[M:4/4] z2 G>G G2 G>E | x8 | x8 | x8 | z2 G>G G2 G>E | x8 | x8 |[M:3/4] [G,B,]2 C>C B,2 |] %19

